!!!!SEGMENT: pl-sa--l-1636--077_anonim--kyrie-ultimum.krn
!!!cenid: 17xx:784
!!!COM: Anonim
!!!COM-rismID: pe30004985
!!!CDT:
!!!CNT:
!!!OTL: Kyrie ultimum
!!!PDT:
!!!AGN: Sacred
!!!SMS-siglum: PL-SA
!!!SMS-shelfmark: L 1636
!!!SMS-shelfwork: 077 W
!!!SMS-variant:
!!!SMS-altvar:
!!!NIFC-rismSourceID: 1001076927
!!!NIFC-rismChildID: 1001076927
!!!NIFC-islandoraID:
!!!URL-pdf-islandora:
!!!URL-scan:
!!!ONB-nifc: 23r, skan 0026, p. 5-8
!!!AIN: 1 empty
!!!key:
**kern	**kern
*part1	*part1
*staff2	*staff1
*Iempty	*Iempty
*I"[Keyboard]	*
*I'keyb	*
*clefC4	*clefC1
*k[]	*k[]
*G:	*G:
*M2/2	*M2/2
*met(c|)	*met(c|)
=1	=1
*2\right	*2\right
*^	*^
!	!	!LO:TX:b:i:t=Kyrie Ultimum	!
2d 2B/	2G\	2b/	2g\
2d 2A/	2D\	2a/	2f#X\
*v	*v	*	*
=2	=2	=2
*clefF4	*	*
8G\L	2b/	2g\
8F\	.	.
8E\	.	.
8D\J	.	.
8C\L	2cc 2g/	2e\
8D\	.	.
8E\	.	.
8F\J	.	.
=3	=3	=3
!LO:TX:a:t=P:problem=mixed beam	!	!
8G\L	2b/	2g\
8GG/	.	.
8BB/	.	.
8C/J	.	.
4D/	2a/	4g\
4DD/	.	4f#X\
!!LO:LB:g=original
=4	=4	=4
*^	*	*
4G/	2GG\	4r	2g\
4E\	.	8b/L	.
.	.	8cc/J	.
4A 4Fn/	4D\	4dd 4a/	4f\
4A 4E/	4AA\	4cc#X/	4a\
=5	=5	=5	=5
*	*^	*	*
4F/	2D/	4BB\	2dd 2b/	4fn\
4G/	.	4GG\	.	4g\
2A/	2E/	2AA\	2ee 2cc#X/	4.a\
.	.	.	.	8g\
*	*v	*v	*	*
=6	=6	=6	=6
2An 2F/	2D\	2ddn 2a/	2fn\
2ryy	8r	4b/	4g\
.	8E\L	.	.
.	8D\	4cc/	4a\
.	8C\J	.	.
=7	=7	=7	=7
4D/	4BB\	8r	8ryy
.	.	8dd/L	8b\L
4E/	4C\	8cc/	8a\
.	.	8b/J	8g\J
8r	2ryy	4a/	4f#X\
8D/L	.	.	.
8C/	.	4b/	4g\
8BB/J	.	.	.
=8	=8	=8	=8
4C/	4AA\	8r	8ryy
.	.	8cc/L	8a\L
4D/	4BB\	8b/	8g\
.	.	8a/J	8f\J
2G/	4C\	8g/L	8e\L
.	.	8a/J	8f#X\J
.	4GG\	4b/	4g\
=9	=9	=9	=9
!	!LO:N:vis=2.	!	!
2D/	2DD/	2a/	4g\
.	.	.	4f\
2D/	2GG\	4g/	2ryy
.	.	8dd\L	.
.	.	8cc\J	.
!!LO:LB:g=original
=10	=10	=10	=10
8G/L	2GG\	8b\L	2ryy
8F/	.	8a\J	.
8E/	.	8g\L	.
8D/J	.	16a\L	.
.	.	16b\JJ	.
2G/	4C\	4cc/	2g\
.	4BB\	4dd 4b/	.
*v	*v	*	*
*	*v	*v
=11	=11
!	!LO:TX:a:t=P:problem=zapis nieczytelny - zamazane źródło
2G 2E 2C\	2ee 2cc 2g\
2G 2D\	2dd 2b 2g\
=12||	=12||
*clefC3	*
2r	8r
.	16g\LL
.	16a\JJ
.	16b\LL
.	16a\
.	16b\
.	16g\JJ
8r	4dd\
16d\LL	.
16e\JJ	.
16f#X\LL	4dd\
16e\	.
16f#\	.
16d\JJ	.
=13	=13
*^	*^
8g\L	2ryy	2ee/	4dd\
16f\L	.	.	.
16e\JJ	.	.	.
4a\	.	.	4cc#X\
4a 4f#X/	4d\	2ryy	8r
.	.	.	16dd\LL
.	.	.	16cc#\JJ
4ryy	8.e\L	.	16dd\LL
.	.	.	16a\
.	.	.	16b\
.	16f#X\Jk	.	16cc#\JJ
*v	*v	*	*
*	*v	*v
!!LO:LB:g=original
=14	=14
*k[f#]	*k[f#]
*	*^
4g#X\	8.b\L	2ryy
.	16a\Jk	.
4B/	16b\LL	.
.	16cc\	.
.	16dd\	.
.	16ee\JJ	.
4c/	8cc/L	8a\L
.	8b/J	8g\J
4d\	4a#X/	8f#\L
.	.	16e\L
.	.	16f#\JJ
=15||	=15||	=15||
*clefC4	*	*
*^	*	*
2ryy	8r	2dd 2b/	2g\
.	16G\LL	.	.
.	16A\JJ	.	.
.	16B\LL	.	.
.	16A\	.	.
.	16B\	.	.
.	16G\JJ	.	.
4d/	8r	2ryy	8r
.	16D\LL	.	16f#\LL
.	16E\JJ	.	16g\JJ
4ryy	16F#\LL	.	16a\LL
.	16E\	.	16g\
.	16F#\	.	16a\
.	16D\JJ	.	16f#\JJ
*v	*v	*	*
=16	=16	=16
*	*	*^
!LO:TX:a:t=P:problem=mixed beam	!	!	!
8G\L	16b\LL	2ryy	2ryy
.	16cc\	.	.
8E\	16dd\	.	.
.	16ee\JJ	.	.
8A\	(>8.cc#Xt\L	.	.
8AA/J	.	.	.
.	32b\LL	.	.
.	32cc#\JJJ)	.	.
*clefF4	*	*	*
!LO:TX:a:t=P:problem=mixed beam	!	!	!
8DD/L	2dd/	8f#X\L	8a/
16D\L	.	16f#\L	8ryy
16E\JJ	.	16g\JJ	.
16F#X\LL	.	16a\LL	4ryy
16E\	.	16g\	.
16F#\	.	16a\	.
16D\JJ	.	16f#\JJ	.
*	*	*v	*v
=17	=17	=17
!LO:TX:a:t=P:problem=mixed beam	!	!
8G\L	2dd 2b/	2g\
16GG/L	.	.
16AA/JJ	.	.
16BB/LL	.	.
16AA/	.	.
16BB/	.	.
16GG/JJ	.	.
8C\L	2cc/	8e\L
8D\	.	8f#\
8E\	.	8g\
8F#\J	.	8a\J
=18	=18	=18
!LO:TX:a:t=P:problem=mixed beam	!	!
8G\L	2b/	2g\
8GG/	.	.
8BB/	.	.
8E/J	.	.
8C/L	2a/	4g\
8AA/	.	.
8D/	.	4f#\
8DD/J	.	.
*	*v	*v
=19	=19
1G 1D 1GG	1gg 1dd 1b 1g 1d 1B
==	==
*-	*-
!!!system-decoration: s1,s2
!!!RDF**kern: > = above
!!!RDF**kern: < = below
!!!EED: Antoni Szymański
!!!EEV: 2020-12-08
!!!ENC: Anastazja Marusiak
!!!END: 2020-06-12
!!!YEC: Copyright 2022 Narodowy Instytut Fryderyka Chopina (https://polishscores.org)
!!!YEM: License CC-BY-4.0 (https://creativecommons.org/licenses/by/4.0)
